src/assets/img/icons/facebook.svg

<?xml version="1.0" encoding="UTF-8"?>
<svg width="112px" height="112px" viewBox="0 0 112 112" version="1.1" xmlns="http://www.w3.org/2000/svg" xmlns:xlink="http://www.w3.org/1999/xlink">
    <!-- Generator: Sketch 50.2 (55047) - http://www.bohemiancoding.com/sketch -->
    <title>facebook</title>
    <desc>Created with Sketch.</desc>
    <defs></defs>
    <g id="Page-1" stroke="none" stroke-width="1" fill="none" fill-rule="evenodd">
        <g id="facebook" fill="#906290">
            <path d="M67.998,56.021 L60.151,56.021 L60.151,84 L48.524,84 L48.524,56.021 L42.994,56.021 L42.994,46.137 L48.524,46.137 L48.524,39.739 C48.524,35.1575 50.6975,28 60.256,28 L68.8695,28.035 L68.8695,37.632 L62.6185,37.632 C61.6,37.632 60.151,38.1395 60.151,40.327 L60.151,46.137 L69.0165,46.137 L67.998,56.021 L67.998,56.021 Z M56,0 C25.074,0 0,25.074 0,56 C0,86.933 25.074,112 56,112 C86.9295,112 112,86.933 112,56 C112,25.074 86.9295,0 56,0 L56,0 Z"></path>
        </g>
    </g>
</svg>

<?xml version="1.0" encoding="utf-8"?>
<svg version="1.1" id="Layer_1" xmlns:sketch="http://www.bohemiancoding.com/sketch/ns"
	 xmlns="http://www.w3.org/2000/svg" xmlns:xlink="http://www.w3.org/1999/xlink" x="0px" y="0px" width="112px" height="112px"
	 viewBox="0 0 112 112" enable-background="new 0 0 112 112" xml:space="preserve">
<title>facebook</title>
<desc>Created with Sketch.</desc>
<g id="Page-1" sketch:type="MSPage">
	<g id="facebook" sketch:type="MSLayerGroup">
		<path sketch:type="MSShapeGroup" fill="#906290" d="M67.998,56.021H60.15V84H48.524V56.021h-5.53v-9.884h5.53v-6.398
			C48.524,35.157,50.697,28,60.256,28l8.613,0.035v9.597h-6.25c-1.02,0-2.469,0.508-2.469,2.695v5.81h8.866L67.998,56.021
			L67.998,56.021z M56,0C25.074,0,0,25.074,0,56c0,30.934,25.074,56,56,56c30.93,0,56-25.066,56-56C112,25.074,86.93,0,56,0L56,0z"
			/>
	</g>
</g>
</svg>
